X:1
T:Chino, CMD
T:Chino, CMD
T:John Robson Sweney, 1881
T:Public Domain Courtesy of the Cyber Hymnal™
C:John Robson Sweney, 1881
Z:Public Domain
Z:Courtesy of the Cyber Hymnal™
%%score ( 1 2 ) ( 3 4 )
L:1/8
Q:1/4=102
M:6/8
K:Bb
V:1 treble 
V:2 treble 
V:3 bass 
V:4 bass 
V:1
 [DF] | [Fd]2 [DB] (cB)[EG] | [DF]2 [EG] [DB]2 [FB] | [Fc]2 [Fc] [FB]2 [Fc] | [Fd]3- [Fd]2 [DF] | %5
 [Fd]2 [DB] (cB)[EG] | [DF]2 [EG] [DB]2 [FB] | [Ec]2 G [Fd]2 [Ec] | [DB]3- [DB]2 [FB] | %9
 [FA]2 [FB] [Fc]2 [Ec] | B2 [Fc] [Fd]2 [Fd] | [Ge]2 [Fd] dc[=EG] | [Fc]3- [Fc]2 [EF] | %13
 [Dd]2 [DB] (cB)[EG] | [DF]2 [EG] [DB]2 [FB] | [Ec]2 G [Fd]2 [Ec] | [DB]3- [DB]2 |] %17
V:2
 x | x3 E2 x | x6 | x6 | x6 | x3 E2 x | x6 | x2 G x3 | x6 | x6 | (DF) x4 | x3 F2 x | x6 | x3 E2 x | %14
 x6 | x2 G x3 | x5 |] %17
V:3
 [B,,B,] | [B,,B,]2 [B,,F,] [E,G,]2 [G,B,] | B,2 [B,,B,] [B,,F,]2 [D,B,] | %3
 [F,A,]2 [E,A,] [D,B,]2 [F,A,] | B,3- B,2 [B,,B,] | [B,,B,]2 [B,,F,] [E,G,]2 [G,B,] | %6
 B,2 [B,,B,] [B,,F,]2 [D,B,] | [E,G,]2 [E,B,] [F,B,]2 [F,A,] | [B,,B,]3- [B,,B,]2 [B,,D] | %9
 [F,C]2 [F,D] [F,E]2 [F,A,] | B,2 [F,A,] B,2 B, | B,2 B, [A,C][G,B,] x | [F,A,]3- [F,A,]2 F, | %13
 [B,,F,]2 [B,,F,] [E,G,]2 [G,B,] | B,2 [B,,B,] [B,,F,]2 [D,B,] | [E,G,]2 [E,B,] [F,B,]2 [F,A,] | %16
 [B,,B,]3- [B,,B,]2 |] %17
V:4
 x | x6 | B,2 x4 | x6 | B,3- B,2 x | x6 | B,2 x4 | x6 | x6 | x6 | (B,,D,) B,2 B, x | B,2 B, B, x2 | %12
 x5 F, | x6 | B,2 x4 | x6 | x5 |] %17

